public/avatar/body/105.svg

<svg xmlns:xlink="http://www.w3.org/1999/xlink" height="82" width="84.85" xmlns="http://www.w3.org/2000/svg"><g transform="translate(37.4 42.25)"><use height="38" transform="translate(-11.95 -17.45)" width="32.05" xlink:href="#a"/><use height="38.95" transform="translate(-12.45 -17.95)" width="33.05" xlink:href="#b"/><use height="22.2" transform="translate(-13.35 -1.25)" width="35.45" xlink:href="#c"/></g><defs><path d="M27.35 7.4q2.15 4.15 3.55 8.75 1.45 4.7 1.15 9.5-.35 4.95-4.2 8.1-3.8 3.2-8.75 4.05l-2.6.2q-3.6 0-7.05-1.15-4.65-1.6-7.1-5.5Q-.2 27.4.05 23q.2-4.4 2-9.3Q3.85 8.75 7 5.05 10.1 1.3 14.7.1l1.8-.1q1.9.05 3.7.8 4.75 2.05 7.15 6.6" fill="#e6be90" fill-rule="evenodd" transform="translate(-.05)" id="d"/><path d="M27.35 7.4Q24.95 2.85 20.2.8 17.55-.3 14.7.1 10.1 1.3 7 5.05q-3.15 3.7-4.95 8.65-1.8 4.9-2 9.3-.25 4.4 2.3 8.35 2.45 3.9 7.1 5.5 4.65 1.55 9.65.95 4.95-.85 8.75-4.05 3.85-3.15 4.2-8.1.3-4.8-1.15-9.5-1.4-4.6-3.55-8.75Z" fill="none" stroke="#070707" stroke-linecap="round" stroke-linejoin="round" transform="translate(.45 .5)" id="e"/><use height="38" width="32.05" xlink:href="#d" id="a"/><use height="38.95" width="33.05" xlink:href="#e" id="b"/><g id="c"><path d="M34.55 5.65Q34.2 2.6 33.2 1.6q-.8-.9-1.15-.85l-1.45.85q-1.7 1.05-2.85 2.5l-2.4 2.7-2.2 2.7q-2.1 1.95-5.4 1.95-3.35 0-5.35-1.85-1.7-2.15-2.45-2.8-2-3-5.05-4.85-1.95-1.15-3.45.5-.95 1.1-.6 4.9.3 3.65 1.7 5.7.7 1.05 1.25 2.95l1.05 2.45q.8 1.1 4.75 2l8.05.95v.05l.05-.05 3.6-.3.55-.1 1.05.05 3.95-.45q1.65-.3 3.35-1.5.9-.65 1.45-4.3l2.45-4.35q.85-1.6.45-4.8Z" fill="none" stroke="#000" stroke-linecap="round" stroke-linejoin="round" stroke-width="1.5"/><path d="M20.25 1.1q.9.9.7 4.1-.15 3.1-1.1 4.85-2.15 4.1-1.8 4.85l-1.6.5q-4.1 4.7-12.1 4.75l-.05.05v-.05l-8.05-.95q-3.95-.9-4.75-2l-1.05-2.45q-.55-1.9-1.25-2.95-.95-1.4-1.55-5.15-.7-4.2.45-5.45 1.65-1.55 3.45-.5Q-5.4 2.55-3.4 5.55q.75.65 2.45 2.8 2 1.85 5.35 1.85 3.3 0 5.4-1.95l2.2-2.7 2.4-2.7q1.15-1.45 2.85-2.5 1.1-.65 1.6-.45.35.1 1.4 1.2" fill="#fff100" fill-rule="evenodd" transform="translate(13.35 1.25)"/><path d="M17.35 4q2.8-.9 3 2.05.2 2.65-1.4 5.2-.4.65-.85 3.5-.35 2.5-1.25 3.1-1.7 1.2-3.35 1.5l-3.5.4H8.35l2.6-4.8q1.4-4.15 2.45-6.1 2.2-4.3 3.95-4.85" fill="#e0d400" fill-rule="evenodd" transform="translate(13.35 1.25)"/><path d="M-7.9 16.85q3.65 2.75 12.5 2.75 8.9 0 11.65-2.25M12 6.15l-2.2 2.7q-2.1 2-5.4 2-3.35 0-5.35-1.85L-3.4 6.15" fill="none" stroke="#b4ba59" stroke-linecap="round" stroke-linejoin="round" transform="translate(13.35 1.25)"/><path d="M11.7 7.15q-1.9-.45-1.25-1.7.5-1 2.2-2.85Q14.4.65 15.1.45q4.2-1.15 4.25.2-2.5.4-4 2.15L11.7 7.15m-14.75 0L-6.7 2.8q-.95-1.1-2.55-1.75l-1.45-.4q.05-1.35 4.25-.2.7.2 2.45 2.15 1.7 1.85 2.2 2.85.65 1.25-1.25 1.7" fill="#3d7a15" fill-rule="evenodd" transform="translate(13.35 1.25)"/><path d="m20.4 1.9.45 4.8M-11.9 1.2l-.35 4" fill="none" stroke="#3d7a15" stroke-linecap="round" stroke-linejoin="round" transform="translate(13.35 1.25)"/><path d="m-5.4 8.2.2 2.85-2-1.65.15-2.5 1.65 1.3m19.35 0 1.65-1.3.2 2.5-2 1.65.15-2.85" fill="#3d7a15" fill-rule="evenodd" transform="translate(13.35 1.25)"/><path d="m1.75 13.2-.15 4.25m3.5-4.1q-1.25 0-1.3 1.9-.05 1.85 1.3 1.85 1.45 0 1.55-1.85.1-1.9-1.55-1.9Z" fill="none" stroke="#3d7a15" stroke-linecap="round" stroke-linejoin="round" transform="translate(13.35 1.25)"/></g></defs></svg>

<?xml version="1.0" encoding="UTF-8" standalone="no"?>
<svg xmlns:xlink="http://www.w3.org/1999/xlink" height="82.0px" width="84.85px" xmlns="http://www.w3.org/2000/svg">
  <g transform="matrix(1.0, 0.0, 0.0, 1.0, 37.4, 42.25)">
    <use height="38.0" transform="matrix(1.0, 0.0, 0.0, 1.0, -11.95, -17.45)" width="32.05" xlink:href="#sprite0"/>
    <use height="38.95" transform="matrix(1.0, 0.0, 0.0, 1.0, -12.45, -17.95)" width="33.05" xlink:href="#sprite1"/>
    <use height="22.2" transform="matrix(1.0, 0.0, 0.0, 1.0, -13.35, -1.25)" width="35.45" xlink:href="#shape2"/>
  </g>
  <defs>
    <g id="sprite0" transform="matrix(1.0, 0.0, 0.0, 1.0, -0.05, 0.0)">
      <use height="38.0" transform="matrix(1.0, 0.0, 0.0, 1.0, 0.05, 0.0)" width="32.05" xlink:href="#shape0"/>
    </g>
    <g id="shape0" transform="matrix(1.0, 0.0, 0.0, 1.0, -0.05, 0.0)">
      <path d="M27.35 7.4 Q29.5 11.55 30.9 16.15 32.35 20.85 32.05 25.65 31.7 30.6 27.85 33.75 24.05 36.95 19.1 37.8 L16.5 38.0 Q12.9 38.0 9.45 36.85 4.8 35.25 2.35 31.35 -0.2 27.4 0.05 23.0 0.25 18.6 2.05 13.7 3.85 8.75 7.0 5.05 10.1 1.3 14.7 0.1 L16.5 0.0 Q18.4 0.05 20.2 0.8 24.95 2.85 27.35 7.4" fill="#e6be90" fill-rule="evenodd" stroke="none"/>
    </g>
    <g id="sprite1" transform="matrix(1.0, 0.0, 0.0, 1.0, 0.45, 0.5)">
      <use height="38.95" transform="matrix(1.0, 0.0, 0.0, 1.0, -0.45, -0.5)" width="33.05" xlink:href="#shape1"/>
    </g>
    <g id="shape1" transform="matrix(1.0, 0.0, 0.0, 1.0, 0.45, 0.5)">
      <path d="M27.35 7.4 Q24.95 2.85 20.2 0.8 17.55 -0.3 14.7 0.1 10.1 1.3 7.0 5.05 3.85 8.75 2.05 13.7 0.25 18.6 0.05 23.0 -0.2 27.4 2.35 31.35 4.8 35.25 9.45 36.85 14.1 38.4 19.1 37.8 24.05 36.95 27.85 33.75 31.7 30.6 32.05 25.65 32.35 20.85 30.9 16.15 29.5 11.55 27.35 7.4 Z" fill="none" stroke="#070707" stroke-linecap="round" stroke-linejoin="round" stroke-width="1.0"/>
    </g>
    <g id="shape2" transform="matrix(1.0, 0.0, 0.0, 1.0, 13.35, 1.25)">
      <path d="M21.2 4.4 Q20.85 1.35 19.85 0.35 19.05 -0.55 18.7 -0.5 L17.25 0.35 Q15.55 1.4 14.4 2.85 L12.0 5.55 9.8 8.25 Q7.7 10.2 4.4 10.2 1.05 10.2 -0.95 8.35 -2.65 6.2 -3.4 5.55 -5.4 2.55 -8.45 0.7 -10.4 -0.45 -11.9 1.2 -12.85 2.3 -12.5 6.1 -12.2 9.75 -10.8 11.8 -10.1 12.85 -9.55 14.75 L-8.5 17.2 Q-7.7 18.3 -3.75 19.2 L4.3 20.15 4.3 20.2 4.35 20.15 7.95 19.85 8.5 19.75 9.55 19.8 13.5 19.35 Q15.15 19.05 16.85 17.85 17.75 17.2 18.3 13.55 L20.75 9.2 Q21.6 7.6 21.2 4.4 Z" fill="none" stroke="#000000" stroke-linecap="round" stroke-linejoin="round" stroke-width="1.5"/>
      <path d="M20.25 1.1 Q21.15 2.0 20.95 5.2 20.8 8.3 19.85 10.05 17.7 14.15 18.05 14.9 L16.45 15.4 Q12.35 20.1 4.35 20.15 L4.3 20.2 4.3 20.15 -3.75 19.2 Q-7.7 18.3 -8.5 17.2 L-9.55 14.75 Q-10.1 12.85 -10.8 11.8 -11.75 10.4 -12.35 6.65 -13.05 2.45 -11.9 1.2 -10.25 -0.35 -8.45 0.7 -5.4 2.55 -3.4 5.55 -2.65 6.2 -0.95 8.35 1.05 10.2 4.4 10.2 7.7 10.2 9.8 8.25 L12.0 5.55 14.4 2.85 Q15.55 1.4 17.25 0.35 18.35 -0.3 18.85 -0.1 19.2 0.0 20.25 1.1" fill="#fff100" fill-rule="evenodd" stroke="none"/>
      <path d="M17.35 4.0 Q20.15 3.1 20.35 6.05 20.55 8.7 18.95 11.25 18.55 11.9 18.1 14.75 17.75 17.25 16.85 17.85 15.15 19.05 13.5 19.35 L10.0 19.75 8.35 19.75 10.95 14.95 Q12.35 10.8 13.4 8.85 15.6 4.55 17.35 4.0" fill="#e0d400" fill-rule="evenodd" stroke="none"/>
      <path d="M-7.9 16.85 Q-4.25 19.6 4.6 19.6 13.5 19.6 16.25 17.35" fill="none" stroke="#b4ba59" stroke-linecap="round" stroke-linejoin="round" stroke-width="1.0"/>
      <path d="M12.0 6.15 L9.8 8.85 Q7.7 10.85 4.4 10.85 1.05 10.85 -0.95 9.0 L-3.4 6.15" fill="none" stroke="#b4ba59" stroke-linecap="round" stroke-linejoin="round" stroke-width="1.0"/>
      <path d="M11.7 7.15 Q9.8 6.7 10.45 5.45 10.95 4.45 12.65 2.6 14.4 0.65 15.1 0.45 19.3 -0.7 19.35 0.65 16.85 1.05 15.35 2.8 L11.7 7.15" fill="#3d7a15" fill-rule="evenodd" stroke="none"/>
      <path d="M-3.05 7.15 L-6.7 2.8 Q-7.65 1.7 -9.25 1.05 L-10.7 0.65 Q-10.65 -0.7 -6.45 0.45 -5.75 0.65 -4.0 2.6 -2.3 4.45 -1.8 5.45 -1.15 6.7 -3.05 7.15" fill="#3d7a15" fill-rule="evenodd" stroke="none"/>
      <path d="M20.4 1.9 L20.85 6.7" fill="none" stroke="#3d7a15" stroke-linecap="round" stroke-linejoin="round" stroke-width="1.0"/>
      <path d="M-11.9 1.2 L-12.25 5.2" fill="none" stroke="#3d7a15" stroke-linecap="round" stroke-linejoin="round" stroke-width="1.0"/>
      <path d="M-5.4 8.2 L-5.2 11.05 -7.2 9.4 -7.05 6.9 -5.4 8.2" fill="#3d7a15" fill-rule="evenodd" stroke="none"/>
      <path d="M13.95 8.2 L15.6 6.9 15.8 9.4 13.8 11.05 13.95 8.2" fill="#3d7a15" fill-rule="evenodd" stroke="none"/>
      <path d="M1.75 13.2 L1.6 17.45" fill="none" stroke="#3d7a15" stroke-linecap="round" stroke-linejoin="round" stroke-width="1.0"/>
      <path d="M5.1 13.35 Q3.85 13.35 3.8 15.25 3.75 17.1 5.1 17.1 6.55 17.1 6.65 15.25 6.75 13.35 5.1 13.35 Z" fill="none" stroke="#3d7a15" stroke-linecap="round" stroke-linejoin="round" stroke-width="1.0"/>
    </g>
  </defs>
</svg>
